X:2
T:Humours of Ballyloughlin, pt.2
R:jig
M:6/8
L:1/8
K:Dmix
fdd gdd|fdd ged|cde ged|cde ged|fdd gdd|
fdd ged|cde gag|1 ed^c d2e:|2 ed^c d2B|]
~A3 A2G|FGF FED|~E3 EFD|~E3 EFG|
AFA dAG|~F3 GEA|~D3 DFA|~D3 D3:|
